X: 38730
T: Street Player, The
R: reel
M: 4/4
K: Dmajor
DFAd ~f2ef|d3e fdAF|G2FG E3F|G2FG EFGE|
FAAF DFA2|B2BA Bcde|faaf gece|eddc d3f:|
|:fddc dfaf|gfed cdeg|~f3a gfed|cAAG A3G|
FAAF DFA2|B2BA Bcde|faaf gece|eddc d3f:|

